common/svg/undo-icon.svg

<svg fill="none" height="20" viewBox="0 0 20 20" width="20" xmlns="http://www.w3.org/2000/svg"><path d="m7.98246 7.66444v3.98026l-7.98246-4.98904 7.98245-4.98903v3.98026s.00001 0 0 0h6.94085c2.7856 0 5.0438 2.25821 5.0438 5.04381v7.9386c0 .5572-.4516 1.0088-1.0088 1.0088-.5571 0-1.0087-.4516-1.0087-1.0088v-7.9386c0-1.67134-1.355-3.02626-3.0263-3.02626z" fill="#000"/></svg>

<svg width="20" height="20" viewBox="0 0 20 20" fill="none" xmlns="http://www.w3.org/2000/svg">
<path d="M7.98246 7.66444V11.6447L0 6.65566L7.98245 1.66663V5.64689C7.98245 5.64689 7.98246 5.64689 7.98245 5.64689H14.9233C17.7089 5.64689 19.9671 7.9051 19.9671 10.6907V18.6293C19.9671 19.1865 19.5155 19.6381 18.9583 19.6381C18.4012 19.6381 17.9496 19.1865 17.9496 18.6293V10.6907C17.9496 9.01936 16.5946 7.66444 14.9233 7.66444H7.98246C7.98246 7.66444 7.98245 7.66444 7.98246 7.66444Z" fill="black"/>
</svg>
